assets/images/svg/home-fill.svg

<svg width="24" height="24" viewBox="0 0 24 24" fill="none" xmlns="http://www.w3.org/2000/svg">
<path d="M20.828 8.01002L14.278 2.77002C12.998 1.75002 10.998 1.74002 9.72801 2.76002L3.17801 8.01002C2.23801 8.76002 1.66801 10.26 1.86801 11.44L3.12801 18.98C3.41801 20.67 4.98801 22 6.69801 22H17.298C18.988 22 20.588 20.64 20.878 18.97L22.138 11.43C22.318 10.26 21.748 8.76002 20.828 8.01002ZM12.748 18C12.748 18.41 12.408 18.75 11.998 18.75C11.588 18.75 11.248 18.41 11.248 18V15C11.248 14.59 11.588 14.25 11.998 14.25C12.408 14.25 12.748 14.59 12.748 15V18Z" fill="#F58218"/>
</svg>

<svg xmlns="http://www.w3.org/2000/svg" width="24" height="24" fill="none" viewBox="0 0 24 24"><path fill="#f58218" d="m20.828 8.01-6.55-5.24c-1.28-1.02-3.28-1.03-4.55-.01l-6.55 5.25c-.94.75-1.51 2.25-1.31 3.43l1.26 7.54c.29 1.69 1.86 3.02 3.57 3.02h10.6c1.69 0 3.29-1.36 3.58-3.03l1.26-7.54c.18-1.17-.39-2.67-1.31-3.42M12.748 18c0 .41-.34.75-.75.75s-.75-.34-.75-.75v-3c0-.41.34-.75.75-.75s.75.34.75.75z"/></svg>
